X:511
T:Highlander's Revenge
C:Bruce MacGregor
S:Slow Session, W End Hotel, Edinburgh
Z:Nigel Gatherer
M:4/4
L:1/8
K:E
E2 EE EF A2 | B2 c2 BA F2 | E2 EE EF A2 | Bc e2 f4  |
f2 ff a2 ag | f2 e2 cB A2 | B2 BB c2 cB | A2 F2 E4 :|
B2 BB c2 cB | A2 B2 AF E2 | B2 BB c2 cB | AceA  f4  |
f2 ff a2 ag | f2 e2 cB A2 | B2 BB c2 cB | A2 F2 E4 :|
<end>
<start>
